;FLAVOR:Marlin
;TIME:15021
;Filament used: 8.91326m
;Layer height: 0.2
;MINX:11.224
;MINY:16.963
;MINZ:0.2
;MAXX:161.168
;MAXY:122.864
;MAXZ:32.8
;Generated with Cura_SteamEngine 4.12.1
M140 S60
M105
M190 S60
M104 S200
M105
M109 S200
M82 ;absolute extrusion mode
; Ender 3 Custom Start G-code
G92 E0 ; Reset Extruder
G28 ; Home all axes
G1 Z2.0 F3000 ; Move Z Axis up little to prevent scratching of Heat Bed
G1 X0.1 Y20 Z0.3 F5000.0 ; Move to start position
G1 X0.1 Y200.0 Z0.3 F1500.0 E15 ; Draw the first line
G1 X0.4 Y200.0 Z0.3 F5000.0 ; Move to side a little
G1 X0.4 Y20 Z0.3 F1500.0 E30 ; Draw the second line
G92 E0 ; Reset Extruder
G1 Z2.0 F3000 ; Move Z Axis up little to prevent scratching of Heat Bed
G1 X5 Y20 Z0.3 F5000.0 ; Move over to prevent blob squish
G92 E0
G92 E0
G1 F1500 E-6.5
;LAYER_COUNT:164
;LAYER:0
M107
G0 F6000 X20.68 Y25.273 Z0.2
;TYPE:SKIRT
G1 F1500 E0
G1 F1200 X22.6 Y23.675 E0.08308
G1 X24.48 Y22.019 E0.16641
G1 X25.387 Y21.175 E0.20762
G1 X25.941 Y20.674 E0.23246
G1 X26.663 Y20.076 E0.26364
G1 X27.433 Y19.54 E0.29485
G1 X28.246 Y19.073 E0.32603
G1 X29.096 Y18.676 E0.35723
G1 X29.976 Y18.353 E0.38841
G1 X30.881 Y18.107 E0.41961
G1 X31.804 Y17.938 E0.45081
G1 X32.982 Y17.838 E0.49014
G1 X33.308 Y17.828 E0.50098
G1 X33.645 Y17.823 E0.51219
G1 X75.965 Y17.823 E1.91976
G1 X78.573 Y17.786 E2.00651
G1 X81.094 Y17.679 E2.09044
G1 X83.589 Y17.502 E2.17363
G1 X86.099 Y17.253 E2.25752
G1 X86.671 Y17.181 E2.2767
G1 X87.866 Y17.044 E2.3167
G1 X88.809 Y16.976 E2.34815
G1 X89.128 Y16.967 E2.35876
G1 X89.438 Y16.963 E2.36908
G1 X141.151 Y16.963 E4.08906
G1 X142.01 Y16.974 E4.11763
G1 X142.946 Y17.027 E4.14881
G1 X143.874 Y17.16 E4.17999
G1 X144.788 Y17.372 E4.2112
G1 X145.681 Y17.66 E4.24241
G1 X146.545 Y18.024 E4.27359
G1 X147.376 Y18.46 E4.3048
G1 X148.166 Y18.965 E4.33599
G1 X148.91 Y19.535 E4.36716
G1 X149.603 Y20.167 E4.39836
G1 X150.207 Y20.817 E4.42787
G1 X150.877 Y21.6 E4.46214
G1 X151.452 Y22.291 E4.49204
G1 X153.106 Y24.169 E4.57528
G1 X154.807 Y25.996 E4.6583
G1 X156.593 Y27.806 E4.74288
G1 X157.148 Y28.338 E4.76845
G1 X157.883 Y29.063 E4.80278
G1 X158.522 Y29.749 E4.83397
G1 X159.1 Y30.488 E4.86517
G1 X159.613 Y31.273 E4.89636
G1 X160.058 Y32.098 E4.92754
G1 X160.43 Y32.959 E4.95873
G1 X160.728 Y33.849 E4.98995
G1 X160.949 Y34.76 E5.02113
G1 X161.092 Y35.687 E5.05233
G1 X161.153 Y36.556 E5.0813
G1 X161.163 Y36.881 E5.09211
G1 X161.168 Y37.219 E5.10336
G1 X161.167 Y73.339 E6.30471
G1 X161.157 Y74.04 E6.32803
G1 X161.104 Y74.976 E6.35921
G1 X160.894 Y76.278 E6.40308
G1 X160.652 Y77.184 E6.43427
G1 X160.333 Y78.066 E6.46546
G1 X160.114 Y78.565 E6.48359
G1 X159.724 Y79.396 E6.51412
G1 X158.677 Y81.713 E6.59869
G1 X157.687 Y84.077 E6.68393
G1 X156.784 Y86.425 E6.7676
G1 X155.962 Y88.754 E6.84975
G1 X155.191 Y91.15 E6.93346
G1 X154.205 Y94.609 E7.05309
G1 X153.965 Y95.516 E7.0843
G1 X153.588 Y96.677 E7.1249
G1 X153.397 Y97.17 E7.14248
G1 X153.256 Y97.518 E7.15497
G1 X153.03 Y98.047 E7.1741
G1 X152.519 Y99.086 E7.21261
G1 X152.284 Y99.507 E7.22865
G1 X152.129 Y99.776 E7.23898
G1 X151.849 Y100.246 E7.25717
G1 X151.323 Y101.047 E7.28904
G1 X151.094 Y101.358 E7.30189
G1 X150.836 Y101.696 E7.31603
G1 X150.676 Y101.901 E7.32468
G1 X150.313 Y102.354 E7.34399
G1 X149.466 Y103.294 E7.38607
G1 X149.086 Y103.67 E7.40385
G1 X148.868 Y103.88 E7.41392
G1 X148.459 Y104.263 E7.43256
G1 X147.524 Y105.046 E7.47312
G1 X146.962 Y105.464 E7.49642
G1 X146.821 Y105.566 E7.5022
G1 X144.706 Y107.148 E7.59005
G1 X142.745 Y108.703 E7.67329
G1 X140.808 Y110.329 E7.75741
G1 X138.92 Y112.008 E7.84144
G1 X137.108 Y113.712 E7.92417
G1 X135.297 Y115.517 E8.00921
G1 X133.568 Y117.339 E8.09276
G1 X132.147 Y118.916 E8.16336
G1 X131.949 Y119.14 E8.1733
G1 X131.298 Y119.816 E8.20452
G1 X130.593 Y120.433 E8.23568
G1 X129.837 Y120.989 E8.26689
G1 X129.036 Y121.478 E8.2981
G1 X128.197 Y121.897 E8.3293
G1 X127.326 Y122.243 E8.36047
G1 X126.428 Y122.513 E8.39166
G1 X125.51 Y122.706 E8.42286
G1 X124.579 Y122.82 E8.45405
G1 X124.013 Y122.851 E8.47291
G1 X123.69 Y122.86 E8.48365
G1 X123.384 Y122.864 E8.49383
G1 X24.279 Y122.863 E11.79008
G1 X23.581 Y122.854 E11.81329
G1 X22.645 Y122.802 E11.84447
G1 X21.716 Y122.67 E11.87568
G1 X20.802 Y122.46 E11.90687
G1 X19.909 Y122.173 E11.93807
G1 X19.044 Y121.81 E11.96927
G1 X18.213 Y121.376 E12.00045
G1 X17.422 Y120.872 E12.03165
G1 X16.677 Y120.302 E12.06285
G1 X15.983 Y119.671 E12.09405
G1 X15.346 Y118.984 E12.12521
G1 X14.769 Y118.244 E12.15642
G1 X14.257 Y117.458 E12.18762
G1 X13.814 Y116.631 E12.21882
G1 X13.443 Y115.77 E12.25
G1 X13.147 Y114.88 E12.2812
G1 X12.928 Y113.968 E12.31239
G1 X12.787 Y113.041 E12.34358
G1 X12.727 Y112.152 E12.37322
G1 X12.718 Y111.819 E12.3843
G1 X12.714 Y111.523 E12.39414
G1 X12.711 Y90.728 E13.08579
G1 X12.639 Y88.24 E13.16857
G1 X12.494 Y85.723 E13.25243
G1 X12.278 Y83.198 E13.33672
G1 X11.992 Y80.701 E13.42031
G1 X11.631 Y78.18 E13.50501
G1 X11.38 Y76.659 E13.55629
G1 X11.267 Y75.728 E13.58748
G1 X11.237 Y75.177 E13.60583
G1 X11.228 Y74.859 E13.61641
G1 X11.224 Y74.548 E13.62676
G1 X11.225 Y38.428 E14.82811
G1 X11.235 Y37.726 E14.85147
G1 X11.288 Y36.79 E14.88265
G1 X11.421 Y35.862 E14.91383
G1 X11.633 Y34.948 E14.94503
G1 X11.921 Y34.055 E14.97624
G1 X12.285 Y33.191 E15.00742
G1 X12.721 Y32.36 E15.03864
G1 X13.226 Y31.57 E15.06982
G1 X13.796 Y30.826 E15.101
G1 X14.428 Y30.133 E15.13219
G1 X15.117 Y29.496 E15.1634
G1 X15.81 Y28.954 E15.19266
G1 X16.598 Y28.387 E15.22495
G1 X18.676 Y26.848 E15.31096
G1 X20.68 Y25.273 E15.39573
G0 F6000 X20.916 Y25.597
G1 F1200 X22.857 Y23.981 E15.47973
G1 X24.771 Y22.295 E15.56457
G1 X25.655 Y21.472 E15.60474
G1 X26.209 Y20.971 E15.62959
G1 X26.918 Y20.384 E15.6602
G1 X27.675 Y19.86 E15.69082
G1 X28.475 Y19.404 E15.72145
G1 X29.312 Y19.02 E15.75208
G1 X30.178 Y18.709 E15.78268
G1 X31.069 Y18.475 E15.81332
G1 X31.976 Y18.318 E15.84394
G1 X32.994 Y18.238 E15.8779
G1 X33.32 Y18.228 E15.88875
G1 X33.645 Y18.223 E15.89956
G1 X75.971 Y18.223 E17.30733
G1 X78.596 Y18.186 E17.39464
G1 X81.104 Y18.079 E17.47814
G1 X83.624 Y17.901 E17.56216
G1 X86.119 Y17.653 E17.64555
G1 X86.717 Y17.578 E17.6656
G1 X87.912 Y17.441 E17.70561
G1 X88.82 Y17.376 E17.73588
G1 X89.139 Y17.367 E17.7465
G1 X89.438 Y17.363 E17.75644
G1 X141.151 Y17.363 E19.47642
G1 X142.004 Y17.374 E19.5048
G1 X142.923 Y17.427 E19.53541
G1 X143.834 Y17.56 E19.56604
G1 X144.73 Y17.771 E19.59665
G1 X145.605 Y18.059 E19.62729
G1 X146.451 Y18.422 E19.65791
G1 X147.262 Y18.857 E19.68852
G1 X148.033 Y19.361 E19.71915
G1 X148.757 Y19.929 E19.74976
G1 X149.429 Y20.559 E19.7804
G1 X149.904 Y21.078 E19.8038
G1 X150.569 Y21.856 E19.83784
G1 X151.143 Y22.546 E19.86769
G1 X152.797 Y24.424 E19.95093
G1 X154.513 Y26.267 E20.03468
G1 X156.315 Y28.093 E20.12001
G1 X156.867 Y28.623 E20.14546
G1 X157.602 Y29.348 E20.1798
G1 X158.229 Y30.022 E20.21042
G1 X158.794 Y30.748 E20.24101
G1 X159.295 Y31.521 E20.27165
G1 X159.727 Y32.334 E20.30227
G1 X160.087 Y33.181 E20.33288
G1 X160.371 Y34.057 E20.36351
G1 X160.579 Y34.954 E20.39414
G1 X160.708 Y35.865 E20.42474
G1 X160.753 Y36.568 E20.44817
G1 X160.763 Y36.893 E20.45898
G1 X160.768 Y37.219 E20.46983
G1 X160.767 Y73.333 E21.67098
G1 X160.757 Y74.034 E21.6943
G1 X160.704 Y74.953 E21.72492
G1 X160.504 Y76.191 E21.76663
G1 X160.265 Y77.081 E21.79728
G1 X159.95 Y77.946 E21.8279
G1 X159.752 Y78.395 E21.84422
G1 X159.381 Y79.185 E21.87325
G1 X158.302 Y81.573 E21.9604
G1 X157.304 Y83.957 E22.04636
G1 X156.421 Y86.252 E22.12815
G1 X155.576 Y88.646 E22.21259
G1 X154.807 Y91.035 E22.29606
G1 X153.822 Y94.493 E22.41565
G1 X153.578 Y95.414 E22.44734
G1 X153.215 Y96.532 E22.48644
G1 X153.024 Y97.025 E22.50402
G1 X152.888 Y97.36 E22.51605
G1 X152.662 Y97.889 E22.53518
G1 X152.17 Y98.891 E22.57231
G1 X151.935 Y99.312 E22.58834
G1 X151.785 Y99.571 E22.5983
G1 X151.505 Y100.041 E22.61649
G1 X150.999 Y100.813 E22.6472
G1 X150.776 Y101.116 E22.65971
G1 X150.518 Y101.454 E22.67385
G1 X150.364 Y101.65 E22.68214
G1 X150.001 Y102.103 E22.70145
G1 X149.185 Y103.01 E22.74203
G1 X148.805 Y103.386 E22.75981
G1 X148.594 Y103.588 E22.76952
G1 X148.185 Y103.971 E22.78816
G1 X147.285 Y104.725 E22.82721
G1 X146.727 Y105.141 E22.85036
G1 X146.586 Y105.243 E22.85615
G1 X144.442 Y106.847 E22.94521
G1 X142.485 Y108.398 E23.02826
G1 X140.551 Y110.022 E23.11226
G1 X138.644 Y111.718 E23.19714
G1 X136.817 Y113.437 E23.28057
G1 X135.043 Y115.204 E23.36385
G1 X133.263 Y117.079 E23.44984
G1 X131.813 Y118.69 E23.52193
G1 X131.649 Y118.875 E23.53015
G1 X131.01 Y119.538 E23.56078
G1 X130.316 Y120.143 E23.5914
G1 X129.572 Y120.685 E23.62202
G1 X128.783 Y121.16 E23.65265
G1 X127.957 Y121.566 E23.68326
G1 X127.098 Y121.898 E23.71389
G1 X126.214 Y122.154 E23.7445
G1 X125.311 Y122.333 E23.77512
G1 X124.002 Y122.451 E23.81883
G1 X123.679 Y122.46 E23.82958
G1 X123.384 Y122.464 E23.83939
G1 X24.284 Y122.463 E27.13547
G1 X23.586 Y122.454 E27.15869
G1 X22.667 Y122.402 E27.1893
G1 X21.756 Y122.271 E27.21992
G1 X20.86 Y122.061 E27.25052
G1 X19.985 Y121.774 E27.28115
G1 X19.138 Y121.412 E27.31179
G1 X18.326 Y120.978 E27.34241
G1 X17.555 Y120.476 E27.37301
G1 X16.83 Y119.908 E27.40364
G1 X16.157 Y119.279 E27.43428
G1 X15.542 Y118.595 E27.46488
G1 X14.988 Y117.86 E27.49549
G1 X14.5 Y117.079 E27.52612
G1 X14.081 Y116.259 E27.55675
G1 X13.735 Y115.406 E27.58736
G1 X13.465 Y114.526 E27.61798
G1 X13.272 Y113.625 E27.64863
G1 X13.158 Y112.712 E27.67923
G1 X13.127 Y112.141 E27.69825
G1 X13.118 Y111.808 E27.70933
G1 X13.114 Y111.523 E27.71881
G1 X13.111 Y90.751 E28.40969
G1 X13.037 Y88.208 E28.4943
G1 X12.891 Y85.665 E28.57902
G1 X12.676 Y83.151 E28.66294
G1 X12.393 Y80.675 E28.74583
G1 X12.024 Y78.102 E28.83229
G1 X11.775 Y76.594 E28.88312
G1 X11.664 Y75.68 E28.91374
G1 X11.637 Y75.166 E28.93086
G1 X11.628 Y74.848 E28.94145
G1 X11.624 Y74.548 E28.95142
G1 X11.625 Y38.434 E30.15258
G1 X11.635 Y37.732 E30.17593
G1 X11.688 Y36.813 E30.20655
G1 X11.821 Y35.902 E30.23717
G1 X12.032 Y35.006 E30.26779
G1 X12.32 Y34.131 E30.29842
G1 X12.683 Y33.285 E30.32904
G1 X13.118 Y32.474 E30.35965
G1 X13.622 Y31.703 E30.39029
G1 X14.19 Y30.979 E30.4209
G1 X14.82 Y30.307 E30.45153
G1 X15.505 Y29.693 E30.48213
G1 X16.043 Y29.279 E30.50471
G1 X16.817 Y28.722 E30.53642
G1 X18.938 Y27.152 E30.62419
G1 X20.916 Y25.597 E30.70788
G0 F6000 X21.178 Y25.9
G1 F1200 X23.111 Y24.291 E30.79153
G1 X25.043 Y22.588 E30.87719
G1 X25.923 Y21.769 E30.91717
G1 X26.477 Y21.268 E30.94201
G1 X27.173 Y20.692 E30.97206
G1 X27.918 Y20.181 E31.00211
G1 X28.704 Y19.737 E31.03213
G1 X29.527 Y19.364 E31.06219
G1 X30.379 Y19.066 E31.09221
G1 X31.255 Y18.844 E31.12226
G1 X32.146 Y18.701 E31.15228
G1 X33.006 Y18.638 E31.18096
G1 X33.332 Y18.628 E31.19181
G1 X33.645 Y18.623 E31.20222
G1 X75.977 Y18.623 E32.61019
G1 X78.583 Y18.586 E32.69687
G1 X81.148 Y18.477 E32.78226
G1 X83.655 Y18.299 E32.86585
G1 X86.176 Y18.05 E32.95011
G1 X86.762 Y17.975 E32.96976
G1 X87.957 Y17.838 E33.00977
G1 X88.831 Y17.776 E33.03891
G1 X89.15 Y17.767 E33.04952
G1 X89.438 Y17.763 E33.0591
G1 X141.151 Y17.763 E34.77908
G1 X141.998 Y17.774 E34.80726
G1 X142.9 Y17.827 E34.83731
G1 X143.793 Y17.959 E34.86733
G1 X144.671 Y18.17 E34.89737
G1 X145.527 Y18.458 E34.92741
G1 X146.355 Y18.82 E34.95746
G1 X147.147 Y19.254 E34.9875
G1 X147.897 Y19.757 E35.01754
G1 X148.6 Y20.323 E35.04756
G1 X149.25 Y20.95 E35.07759
G1 X149.6 Y21.338 E35.09497
G1 X150.262 Y22.112 E35.12885
G1 X150.837 Y22.803 E35.15875
G1 X152.505 Y24.696 E35.24266
G1 X154.235 Y26.554 E35.3271
G1 X156.036 Y28.38 E35.4124
G1 X156.586 Y28.907 E35.43774
G1 X157.321 Y29.632 E35.47208
G1 X157.935 Y30.294 E35.50211
G1 X158.488 Y31.008 E35.53215
G1 X158.976 Y31.768 E35.56219
G1 X159.395 Y32.568 E35.59222
G1 X159.742 Y33.402 E35.62227
G1 X160.013 Y34.264 E35.65232
G1 X160.207 Y35.146 E35.68236
G1 X160.322 Y36.041 E35.71237
G1 X160.353 Y36.58 E35.73033
G1 X160.363 Y36.905 E35.74114
G1 X160.368 Y37.219 E35.75159
G1 X160.367 Y73.327 E36.95254
G1 X160.357 Y74.028 E36.97586
G1 X160.304 Y74.93 E37.00591
G1 X160.113 Y76.105 E37.04551
G1 X159.878 Y76.977 E37.07554
G1 X159.39 Y78.225 E37.12011
G1 X158.999 Y79.058 E37.15072
G1 X157.939 Y81.403 E37.23631
G1 X156.942 Y83.784 E37.32217
G1 X156.043 Y86.124 E37.40554
G1 X155.194 Y88.527 E37.49031
G1 X154.421 Y90.929 E37.57423
G1 X153.452 Y94.329 E37.69182
G1 X153.192 Y95.312 E37.72564
G1 X152.842 Y96.388 E37.76327
G1 X152.651 Y96.881 E37.78086
G1 X152.52 Y97.203 E37.79242
G1 X152.294 Y97.732 E37.81155
G1 X151.82 Y98.697 E37.84731
G1 X151.585 Y99.118 E37.86335
G1 X151.442 Y99.366 E37.87287
G1 X151.162 Y99.836 E37.89107
G1 X150.674 Y100.579 E37.92063
G1 X150.458 Y100.873 E37.93277
G1 X150.2 Y101.211 E37.94691
G1 X150.052 Y101.4 E37.95489
G1 X149.689 Y101.853 E37.9742
G1 X148.903 Y102.726 E38.01327
G1 X148.523 Y103.102 E38.03105
G1 X148.321 Y103.296 E38.04037
G1 X147.912 Y103.679 E38.059
G1 X147.045 Y104.405 E38.09662
G1 X146.492 Y104.817 E38.11955
G1 X146.317 Y104.944 E38.12674
G1 X144.222 Y106.511 E38.21376
G1 X142.242 Y108.08 E38.29778
G1 X140.273 Y109.734 E38.38331
G1 X138.387 Y111.411 E38.46725
G1 X136.543 Y113.145 E38.55144
G1 X134.736 Y114.946 E38.6363
G1 X132.976 Y116.8 E38.72132
G1 X131.484 Y118.457 E38.79548
G1 X131.349 Y118.61 E38.80227
G1 X130.722 Y119.26 E38.83231
G1 X130.039 Y119.851 E38.86235
G1 X129.307 Y120.38 E38.89239
G1 X128.531 Y120.842 E38.92242
G1 X127.717 Y121.234 E38.95247
G1 X126.872 Y121.551 E38.98249
G1 X126.002 Y121.793 E39.01253
G1 X125.114 Y121.957 E39.04256
G1 X123.991 Y122.051 E39.08004
G1 X123.668 Y122.06 E39.09079
G1 X123.384 Y122.064 E39.10024
G1 X24.289 Y122.063 E42.39615
G1 X23.591 Y122.054 E42.41937
G1 X22.69 Y122.003 E42.44938
G1 X21.796 Y121.871 E42.47944
G1 X20.918 Y121.662 E42.50946
G1 X20.061 Y121.375 E42.53952
G1 X19.234 Y121.014 E42.56953
G1 X18.441 Y120.581 E42.59958
G1 X17.69 Y120.08 E42.62961
G1 X16.986 Y119.514 E42.65965
G1 X16.335 Y118.888 E42.68969
G1 X15.742 Y118.207 E42.71972
G1 X15.212 Y117.476 E42.74975
G1 X14.748 Y116.701 E42.7798
G1 X14.354 Y115.888 E42.80985
G1 X14.034 Y115.044 E42.83987
G1 X13.79 Y114.174 E42.86992
G1 X13.624 Y113.286 E42.89997
G1 X13.527 Y112.131 E42.93852
G1 X13.518 Y111.798 E42.9496
G1 X13.514 Y111.523 E42.95875
G1 X13.511 Y90.74 E43.64999
G1 X13.437 Y88.172 E43.73544
G1 X13.293 Y85.676 E43.81859
G1 X13.073 Y83.111 E43.90422
G1 X12.787 Y80.605 E43.98811
G1 X12.425 Y78.076 E44.07308
G1 X12.169 Y76.529 E44.12524
G1 X12.062 Y75.632 E44.15528
G1 X12.037 Y75.155 E44.17117
G1 X12.028 Y74.837 E44.18175
G1 X12.024 Y74.548 E44.19136
G1 X12.025 Y38.44 E45.39232
G1 X12.035 Y37.738 E45.41567
G1 X12.088 Y36.836 E45.44572
G1 X12.22 Y35.943 E45.47575
G1 X12.431 Y35.065 E45.50578
G1 X12.719 Y34.209 E45.53582
G1 X13.081 Y33.381 E45.56588
G1 X13.515 Y32.589 E45.59591
G1 X14.018 Y31.839 E45.62595
G1 X14.584 Y31.136 E45.65597
G1 X15.211 Y30.486 E45.68601
G1 X15.893 Y29.894 E45.71604
G1 X16.277 Y29.603 E45.73207
G1 X17.097 Y29.013 E45.76567
G1 X19.155 Y27.489 E45.85084
G1 X21.178 Y25.9 E45.9364
G1 F1500 E39.4364
;MESH:Guidage_manivelle.STL
G0 F6000 X37.343 Y43.312
G0 X36.425 Y42.175
G0 X35.887 Y43.875
G0 X35.853 Y44.681
G0 X36.09 Y45.454
G0 X36.571 Y46.103
G0 X37.24 Y46.556
G0 X37.875 Y46.718
G0 X39.318 Y46.795
;TYPE:WALL-INNER
G1 F1500 E45.9364
G1 F1200 X39.722 Y46.566 E45.95185
G1 X40.06 Y46.292 E45.96632
G1 X40.356 Y45.954 E45.98126
G1 X40.592 Y45.572 E45.9962
G1 X40.76 Y45.155 E46.01115
G1 X40.855 Y44.714 E46.02615
G1 X40.874 Y44.265 E46.0411
G1 X40.816 Y43.819 E46.05606
G1 X40.685 Y43.389 E46.07101
G1 X40.483 Y42.988 E46.08594
G1 X40.214 Y42.624 E46.101
G1 X39.878 Y42.305 E46.11641
G1 X39.517 Y42.062 E46.13088
G1 X39.108 Y41.878 E46.1458
G1 X38.673 Y41.763 E46.16076
G1 X38.224 Y41.726 E46.17575
G1 X37.776 Y41.763 E46.1907
G1 X37.34 Y41.878 E46.2057
G1 X36.93 Y42.063 E46.22066
G1 X36.546 Y42.324 E46.2361
G1 X36.232 Y42.626 E46.25059
G1 X35.966 Y42.988 E46.26553
G1 X35.764 Y43.388 E46.28044
G1 X35.632 Y43.819 E46.29543
G1 X35.574 Y44.266 E46.31042
G1 X35.594 Y44.714 E46.32533
G1 X35.688 Y45.155 E46.34033
G1 X35.857 Y45.572 E46.3553
G1 X36.092 Y45.954 E46.37021
G1 X36.389 Y46.293 E46.3852
G1 X36.739 Y46.574 E46.40013
G1 X37.131 Y46.795 E46.4151
