;FLAVOR:Marlin
;TIME:4723
;Filament used: 2.61558m
;Layer height: 0.2
;MINX:3.518
;MINY:12.136
;MINZ:0.2
;MAXX:125.518
;MAXY:76.149
;MAXZ:12
;Generated with Cura_SteamEngine 4.12.1
M140 S60
M105
M190 S60
M104 S200
M105
M109 S200
M82 ;absolute extrusion mode
; Ender 3 Custom Start G-code
G92 E0 ; Reset Extruder
G28 ; Home all axes
G1 Z2.0 F3000 ; Move Z Axis up little to prevent scratching of Heat Bed
G1 X0.1 Y20 Z0.3 F5000.0 ; Move to start position
G1 X0.1 Y200.0 Z0.3 F1500.0 E15 ; Draw the first line
G1 X0.4 Y200.0 Z0.3 F5000.0 ; Move to side a little
G1 X0.4 Y20 Z0.3 F1500.0 E30 ; Draw the second line
G92 E0 ; Reset Extruder
G1 Z2.0 F3000 ; Move Z Axis up little to prevent scratching of Heat Bed
G1 X5 Y20 Z0.3 F5000.0 ; Move over to prevent blob squish
G92 E0
G92 E0
G1 F1500 E-6.5
;LAYER_COUNT:60
;LAYER:0
M107
G0 F6000 X8.945 Y13.667 Z0.2
;TYPE:SKIRT
G1 F1500 E0
G1 F1200 X9.773 Y13.226 E0.0312
G1 X10.635 Y12.857 E0.06239
G1 X11.526 Y12.563 E0.09359
G1 X12.438 Y12.345 E0.12478
G1 X13.365 Y12.207 E0.15595
G1 X14.219 Y12.149 E0.18442
G1 X14.539 Y12.14 E0.19507
G1 X14.848 Y12.136 E0.20535
G1 X113.811 Y12.136 E3.49687
G1 X114.667 Y12.147 E3.52535
G1 X115.603 Y12.201 E3.55653
G1 X116.531 Y12.333 E3.58771
G1 X117.445 Y12.545 E3.61891
G1 X118.337 Y12.834 E3.6501
G1 X119.202 Y13.197 E3.6813
G1 X120.032 Y13.633 E3.71248
G1 X120.823 Y14.138 E3.7437
G1 X121.567 Y14.709 E3.77489
G1 X122.26 Y15.341 E3.80608
G1 X122.897 Y16.029 E3.83727
G1 X123.472 Y16.77 E3.86846
G1 X123.983 Y17.556 E3.89965
G1 X124.425 Y18.384 E3.93086
G1 X124.794 Y19.246 E3.96205
G1 X125.089 Y20.136 E3.99324
G1 X125.307 Y21.048 E4.02442
G1 X125.447 Y21.976 E4.05564
G1 X125.505 Y22.837 E4.08434
G1 X125.514 Y23.157 E4.09499
G1 X125.518 Y23.466 E4.10527
G1 X125.517 Y42.236 E4.72956
G1 X125.508 Y42.963 E4.75374
G1 X125.457 Y43.9 E4.78495
G1 X125.325 Y44.828 E4.81613
G1 X125.116 Y45.742 E4.84731
G1 X124.829 Y46.635 E4.87851
G1 X124.467 Y47.501 E4.90973
G1 X124.033 Y48.332 E4.94091
G1 X123.529 Y49.123 E4.9721
G1 X122.96 Y49.868 E5.00328
G1 X122.329 Y50.563 E5.03451
G1 X121.642 Y51.201 E5.06569
G1 X120.903 Y51.778 E5.09687
G1 X120.117 Y52.29 E5.12807
G1 X119.291 Y52.733 E5.15925
G1 X118.429 Y53.105 E5.19047
G1 X117.54 Y53.401 E5.22164
G1 X116.628 Y53.621 E5.25284
G1 X115.701 Y53.762 E5.28403
G1 X114.817 Y53.823 E5.3135
G1 X114.496 Y53.832 E5.32418
G1 X114.188 Y53.836 E5.33442
G1 X107.554 Y53.836 E5.55507
G1 X104.946 Y53.873 E5.64182
G1 X102.425 Y53.98 E5.72575
G1 X99.93 Y54.157 E5.80894
G1 X97.43 Y54.405 E5.8925
G1 X94.937 Y54.724 E5.97609
G1 X92.444 Y55.115 E6.06002
G1 X89.954 Y55.578 E6.14426
G1 X87.49 Y56.108 E6.22809
G1 X85.088 Y56.697 E6.31035
G1 X82.632 Y57.373 E6.39507
G1 X80.222 Y58.111 E6.4789
G1 X77.83 Y58.918 E6.56287
G1 X75.49 Y59.781 E6.64582
G1 X73.134 Y60.727 E6.73026
G1 X70.836 Y61.727 E6.81362
G1 X68.555 Y62.796 E6.8974
G1 X66.285 Y63.939 E6.98193
G1 X64.092 Y65.124 E7.06484
G1 X61.909 Y66.382 E7.14864
G1 X59.764 Y67.702 E7.23241
G1 X57.667 Y69.075 E7.31577
G1 X55.592 Y70.52 E7.39988
G1 X53.557 Y72.024 E7.48404
G1 X52.467 Y72.866 E7.52985
G1 X52.158 Y73.109 E7.54292
G1 X51.123 Y73.83 E7.58488
G1 X50.954 Y73.934 E7.59148
G1 X50.508 Y74.194 E7.60865
G1 X50.117 Y74.41 E7.62351
G1 X48.972 Y74.959 E7.66574
G1 X48.794 Y75.032 E7.67214
G1 X48.29 Y75.225 E7.69009
G1 X47.869 Y75.374 E7.70494
G1 X46.641 Y75.729 E7.74746
G1 X46.439 Y75.775 E7.75435
G1 X45.965 Y75.873 E7.77045
G1 X45.525 Y75.953 E7.78532
G1 X44.301 Y76.105 E7.82634
G1 X44.124 Y76.117 E7.83225
G1 X43.559 Y76.141 E7.85105
G1 X43.067 Y76.149 E7.86742
G1 X42.506 Y76.143 E7.88608
G1 X41.734 Y76.115 E7.91177
G1 X22.951 Y75.173 E8.53728
G1 X22.171 Y75.121 E8.56328
G1 X21.568 Y75.064 E8.58343
G1 X21.167 Y75.011 E8.59688
G1 X20.874 Y74.968 E8.60673
G1 X19.952 Y74.793 E8.63795
G1 X19.334 Y74.628 E8.65922
G1 X19.045 Y74.542 E8.66925
G1 X18.674 Y74.425 E8.68219
G1 X18.463 Y74.354 E8.68959
G1 X17.588 Y74.017 E8.72078
G1 X17.143 Y73.812 E8.73707
G1 X16.969 Y73.727 E8.74352
G1 X16.645 Y73.562 E8.75561
G1 X16.379 Y73.421 E8.76562
G1 X15.57 Y72.947 E8.79681
G1 X15.091 Y72.619 E8.81612
G1 X14.875 Y72.463 E8.82498
G1 X14.61 Y72.267 E8.83594
G1 X14.424 Y72.124 E8.84375
G1 X13.706 Y71.521 E8.87493
G1 X13.261 Y71.091 E8.89551
G1 X13.09 Y70.916 E8.90365
G1 X12.883 Y70.697 E8.91367
G1 X12.698 Y70.497 E8.92273
G1 X12.091 Y69.782 E8.95393
G1 X11.736 Y69.3 E8.97384
G1 X11.609 Y69.117 E8.98125
G1 X11.413 Y68.824 E8.99297
G1 X11.266 Y68.597 E9.00197
G1 X10.79 Y67.789 E9.03316
G1 X10.553 Y67.316 E9.05076
G1 X10.459 Y67.117 E9.05808
G1 X10.325 Y66.822 E9.06885
G1 X10.211 Y66.561 E9.07832
G1 X9.872 Y65.686 E9.10953
G1 X9.68 Y65.056 E9.13144
G1 X9.612 Y64.807 E9.14003
G1 X9.529 Y64.487 E9.15102
G1 X9.468 Y64.234 E9.15968
G1 X9.408 Y63.969 E9.16871
G1 X9.166 Y62.841 E9.20708
G1 X9 Y62.012 E9.2352
G1 X8.439 Y59.576 E9.31835
G1 X7.804 Y57.14 E9.40208
G1 X7.095 Y54.701 E9.48656
G1 X6.336 Y52.341 E9.56901
G1 X5.486 Y49.935 E9.65388
G1 X4.564 Y47.54 E9.73924
G1 X4.36 Y47.036 E9.75732
G1 X4.255 Y46.762 E9.76708
G1 X3.957 Y45.873 E9.79827
G1 X3.736 Y44.961 E9.82948
G1 X3.594 Y44.035 E9.86064
G1 X3.531 Y43.13 E9.89081
G1 X3.522 Y42.804 E9.90166
G1 X3.518 Y42.5 E9.91177
G1 X3.519 Y23.645 E10.53889
G1 X3.529 Y22.98 E10.56101
G1 X3.583 Y22.043 E10.59223
G1 X3.717 Y21.115 E10.62341
G1 X3.929 Y20.201 E10.65462
G1 X4.218 Y19.309 E10.6858
G1 X4.583 Y18.445 E10.717
G1 X5.019 Y17.615 E10.74818
G1 X5.525 Y16.825 E10.77939
G1 X6.096 Y16.081 E10.81058
G1 X6.728 Y15.388 E10.84177
G1 X7.417 Y14.752 E10.87296
G1 X8.158 Y14.177 E10.90416
G1 X8.945 Y13.667 E10.93535
G0 F6000 X9.324 Y13.91
G1 F1200 X10.145 Y13.494 E10.96596
G1 X10.999 Y13.15 E10.99658
G1 X11.879 Y12.881 E11.02719
G1 X12.78 Y12.69 E11.05782
G1 X13.694 Y12.578 E11.08845
G1 X14.23 Y12.549 E11.1063
G1 X14.55 Y12.54 E11.11695
G1 X14.848 Y12.536 E11.12686
G1 X113.963 Y12.537 E14.42344
G1 X114.661 Y12.547 E14.44666
G1 X115.58 Y12.6 E14.47727
G1 X116.491 Y12.733 E14.5079
G1 X117.387 Y12.944 E14.53851
G1 X118.261 Y13.232 E14.56912
G1 X119.108 Y13.595 E14.59977
G1 X119.919 Y14.03 E14.63038
G1 X120.689 Y14.534 E14.66099
G1 X121.413 Y15.103 E14.69161
G1 X122.085 Y15.733 E14.72225
G1 X122.7 Y16.418 E14.75287
G1 X123.253 Y17.154 E14.78349
G1 X123.74 Y17.935 E14.8141
G1 X124.157 Y18.756 E14.84473
G1 X124.502 Y19.61 E14.87536
G1 X124.771 Y20.49 E14.90597
G1 X124.963 Y21.391 E14.93661
G1 X125.076 Y22.304 E14.96721
G1 X125.105 Y22.848 E14.98533
G1 X125.114 Y23.168 E14.99597
G1 X125.118 Y23.466 E15.00589
G1 X125.117 Y42.231 E15.63001
G1 X125.108 Y42.958 E15.65419
G1 X125.057 Y43.877 E15.68481
G1 X124.926 Y44.789 E15.71545
G1 X124.716 Y45.685 E15.74606
G1 X124.43 Y46.56 E15.77668
G1 X124.069 Y47.407 E15.8073
G1 X123.635 Y48.219 E15.83792
G1 X123.133 Y48.991 E15.86855
G1 X122.565 Y49.716 E15.89918
G1 X121.937 Y50.389 E15.9298
G1 X121.253 Y51.005 E15.96042
G1 X120.518 Y51.559 E15.99103
G1 X119.738 Y52.048 E16.02165
G1 X118.918 Y52.467 E16.05228
G1 X118.065 Y52.813 E16.08289
G1 X117.185 Y53.084 E16.11352
G1 X116.285 Y53.277 E16.14413
G1 X115.371 Y53.392 E16.17477
G1 X114.806 Y53.423 E16.19359
G1 X114.485 Y53.432 E16.20427
G1 X114.188 Y53.436 E16.21415
G1 X107.548 Y53.436 E16.435
G1 X104.923 Y53.473 E16.52232
G1 X102.415 Y53.58 E16.60581
G1 X99.895 Y53.758 E16.68983
G1 X97.38 Y54.007 E16.77389
G1 X94.891 Y54.326 E16.85735
G1 X92.339 Y54.727 E16.94327
G1 X89.908 Y55.179 E17.02551
G1 X87.416 Y55.715 E17.11029
G1 X84.959 Y56.317 E17.19443
G1 X82.514 Y56.99 E17.27878
G1 X80.114 Y57.725 E17.36226
G1 X77.7 Y58.539 E17.44699
G1 X75.35 Y59.406 E17.5303
G1 X72.962 Y60.365 E17.61589
G1 X70.685 Y61.356 E17.69849
G1 X68.356 Y62.448 E17.78404
G1 X66.121 Y63.573 E17.86727
G1 X63.908 Y64.768 E17.95092
G1 X61.721 Y66.029 E18.03488
G1 X59.541 Y67.371 E18.12003
G1 X57.442 Y68.745 E18.20347
G1 X55.355 Y70.199 E18.28807
G1 X53.307 Y71.711 E18.37274
G1 X52.151 Y72.605 E18.42134
G1 X51.91 Y72.794 E18.43153
G1 X50.913 Y73.49 E18.47197
G1 X50.744 Y73.594 E18.47857
G1 X50.315 Y73.844 E18.49508
G1 X49.924 Y74.06 E18.50994
G1 X48.82 Y74.589 E18.55066
G1 X48.642 Y74.662 E18.55706
G1 X48.157 Y74.848 E18.57433
G1 X47.736 Y74.997 E18.58919
G1 X46.553 Y75.339 E18.63014
G1 X46.351 Y75.385 E18.63703
G1 X45.893 Y75.479 E18.65259
G1 X45.453 Y75.559 E18.66746
G1 X44.274 Y75.706 E18.70698
G1 X44.097 Y75.718 E18.71288
G1 X43.552 Y75.741 E18.73102
G1 X43.06 Y75.749 E18.74739
G1 X42.52 Y75.744 E18.76535
G1 X41.754 Y75.716 E18.79084
G1 X22.978 Y74.774 E19.41612
G1 X22.198 Y74.722 E19.44212
G1 X21.616 Y74.667 E19.46156
G1 X21.225 Y74.616 E19.47468
G1 X20.932 Y74.573 E19.48453
G1 X20.028 Y74.4 E19.51514
G1 X19.448 Y74.245 E19.53511
G1 X19.159 Y74.159 E19.54514
G1 X18.801 Y74.045 E19.55763
G1 X18.59 Y73.974 E19.56504
G1 X17.318 Y73.452 E19.61077
G1 X17.144 Y73.367 E19.61721
G1 X16.833 Y73.209 E19.62881
G1 X16.567 Y73.068 E19.63883
G1 X15.773 Y72.601 E19.66946
G1 X15.325 Y72.295 E19.68751
G1 X15.109 Y72.139 E19.69637
G1 X14.854 Y71.949 E19.70695
G1 X14.668 Y71.806 E19.71475
G1 X13.963 Y71.214 E19.74537
G1 X13.548 Y70.811 E19.76461
G1 X13.377 Y70.636 E19.77275
G1 X13.177 Y70.426 E19.78239
G1 X12.992 Y70.226 E19.79145
G1 X12.396 Y69.523 E19.82211
G1 X12.065 Y69.072 E19.84072
G1 X11.938 Y68.889 E19.84812
G1 X11.749 Y68.607 E19.85942
G1 X11.602 Y68.38 E19.86841
G1 X11.135 Y67.586 E19.89905
G1 X10.914 Y67.145 E19.91545
G1 X10.82 Y66.946 E19.92277
G1 X10.691 Y66.662 E19.93315
G1 X10.577 Y66.401 E19.94262
G1 X10.246 Y65.542 E19.97324
G1 X10.065 Y64.951 E19.9938
G1 X9.997 Y64.702 E20.00238
G1 X9.918 Y64.394 E20.01296
G1 X9.857 Y64.141 E20.02161
G1 X9.799 Y63.885 E20.03034
G1 X9.559 Y62.762 E20.06854
G1 X9.396 Y61.949 E20.09612
G1 X8.83 Y59.491 E20.18001
G1 X8.188 Y57.029 E20.26464
G1 X7.481 Y54.597 E20.34887
G1 X6.704 Y52.18 E20.43331
G1 X5.877 Y49.838 E20.51592
G1 X4.939 Y47.401 E20.60278
G1 X4.821 Y47.113 E20.61313
G1 X4.629 Y46.619 E20.63075
G1 X4.337 Y45.746 E20.66137
G1 X4.122 Y44.851 E20.69199
G1 X3.986 Y43.94 E20.72262
G1 X3.931 Y43.119 E20.74999
G1 X3.922 Y42.793 E20.76084
G1 X3.918 Y42.5 E20.77058
G1 X3.919 Y23.651 E21.3975
G1 X3.929 Y22.986 E21.41962
G1 X3.983 Y22.067 E21.45024
G1 X4.116 Y21.156 E21.48086
G1 X4.328 Y20.26 E21.51149
G1 X4.617 Y19.385 E21.54214
G1 X4.981 Y18.54 E21.57274
G1 X5.416 Y17.729 E21.60335
G1 X5.921 Y16.958 E21.634
G1 X6.49 Y16.235 E21.6646
G1 X7.12 Y15.563 E21.69524
G1 X7.806 Y14.949 E21.72586
G1 X8.542 Y14.397 E21.75646
G1 X9.324 Y13.91 E21.7871
G0 F6000 X9.701 Y14.159
G1 F1200 X10.515 Y13.768 E21.81714
G1 X11.36 Y13.449 E21.84718
G1 X12.23 Y13.207 E21.87721
G1 X13.118 Y13.043 E21.90725
G1 X14.241 Y12.949 E21.94473
G1 X14.561 Y12.94 E21.95538
G1 X14.848 Y12.936 E21.96492
G1 X113.811 Y12.936 E25.25645
G1 X114.655 Y12.947 E25.28452
G1 X115.557 Y13 E25.31457
G1 X116.45 Y13.132 E25.3446
G1 X117.328 Y13.343 E25.37463
G1 X118.184 Y13.631 E25.40467
G1 X119.011 Y13.993 E25.43469
G1 X119.803 Y14.428 E25.46475
G1 X120.554 Y14.93 E25.49479
G1 X121.257 Y15.497 E25.52483
G1 X121.907 Y16.124 E25.55487
G1 X122.499 Y16.806 E25.58491
G1 X123.029 Y17.537 E25.61494
G1 X123.491 Y18.313 E25.64498
G1 X123.884 Y19.126 E25.67501
G1 X124.202 Y19.971 E25.70504
G1 X124.445 Y20.841 E25.73508
G1 X124.61 Y21.729 E25.76512
G1 X124.705 Y22.859 E25.80284
G1 X124.714 Y23.179 E25.81349
G1 X124.718 Y23.466 E25.82303
G1 X124.717 Y42.226 E26.44699
G1 X124.708 Y42.953 E26.47118
G1 X124.657 Y43.855 E26.50122
G1 X124.526 Y44.749 E26.53128
G1 X124.317 Y45.627 E26.5613
G1 X124.031 Y46.484 E26.59134
G1 X123.67 Y47.312 E26.62139
G1 X123.238 Y48.104 E26.65139
G1 X122.737 Y48.856 E26.68145
G1 X122.171 Y49.56 E26.71149
G1 X121.546 Y50.211 E26.74151
G1 X120.865 Y50.805 E26.77156
G1 X120.134 Y51.336 E26.80161
G1 X119.36 Y51.8 E26.83163
G1 X118.547 Y52.194 E26.86168
G1 X117.703 Y52.514 E26.8917
G1 X116.833 Y52.759 E26.92176
G1 X115.946 Y52.925 E26.95177
G1 X114.795 Y53.023 E26.9902
G1 X114.474 Y53.032 E27.00088
G1 X114.188 Y53.036 E27.01039
G1 X107.542 Y53.036 E27.23144
G1 X104.936 Y53.073 E27.31812
G1 X102.371 Y53.182 E27.40351
G1 X99.864 Y53.36 E27.4871
G1 X97.323 Y53.611 E27.57203
G1 X94.815 Y53.932 E27.65613
G1 X92.31 Y54.326 E27.74047
G1 X89.823 Y54.788 E27.8246
G1 X87.309 Y55.329 E27.91013
G1 X84.863 Y55.928 E27.99389
G1 X82.419 Y56.601 E28.0782
G1 X79.984 Y57.346 E28.1629
G1 X77.582 Y58.157 E28.24722
G1 X75.169 Y59.047 E28.33276
G1 X72.862 Y59.973 E28.41544
G1 X70.491 Y61.005 E28.50145
G1 X68.185 Y62.086 E28.58615
G1 X65.943 Y63.215 E28.66964
G1 X63.685 Y64.435 E28.75501
G1 X61.517 Y65.685 E28.83824
G1 X59.333 Y67.028 E28.92352
G1 X57.223 Y68.41 E29.00741
G1 X55.128 Y69.869 E29.09232
G1 X53.035 Y71.415 E29.17887
G1 X51.972 Y72.237 E29.22356
G1 X51.663 Y72.48 E29.23663
G1 X50.704 Y73.149 E29.27552
G1 X50.535 Y73.253 E29.28212
G1 X50.121 Y73.494 E29.29806
G1 X49.73 Y73.71 E29.31291
G1 X48.668 Y74.219 E29.35208
G1 X48.49 Y74.292 E29.35848
G1 X48.023 Y74.471 E29.37512
G1 X47.602 Y74.62 E29.38997
G1 X46.464 Y74.949 E29.42937
G1 X46.262 Y74.995 E29.43626
G1 X45.822 Y75.085 E29.4512
G1 X45.382 Y75.165 E29.46607
G1 X44.247 Y75.307 E29.50412
G1 X44.07 Y75.319 E29.51002
G1 X43.546 Y75.341 E29.52746
G1 X43.054 Y75.349 E29.54383
G1 X42.534 Y75.344 E29.56112
G1 X41.774 Y75.316 E29.58642
G1 X23.173 Y74.384 E30.20587
G1 X22.225 Y74.322 E30.23747
G1 X21.665 Y74.27 E30.25617
G1 X21.283 Y74.22 E30.26899
G1 X20.99 Y74.177 E30.27883
G1 X20.103 Y74.006 E30.30888
G1 X19.562 Y73.861 E30.32751
G1 X19.273 Y73.775 E30.33754
G1 X18.929 Y73.666 E30.34954
G1 X18.718 Y73.595 E30.35694
G1 X17.494 Y73.093 E30.40095
G1 X17.32 Y73.008 E30.40739
G1 X17.02 Y72.855 E30.41859
G1 X16.754 Y72.714 E30.4286
G1 X15.975 Y72.256 E30.45866
G1 X15.559 Y71.971 E30.47543
G1 X15.343 Y71.815 E30.48429
G1 X15.098 Y71.632 E30.49446
G1 X14.912 Y71.489 E30.50226
G1 X14.221 Y70.908 E30.53229
G1 X13.834 Y70.532 E30.55024
G1 X13.663 Y70.357 E30.55838
G1 X13.47 Y70.154 E30.56769
G1 X13.285 Y69.954 E30.57675
G1 X12.702 Y69.265 E30.60677
G1 X12.393 Y68.843 E30.62417
G1 X12.266 Y68.66 E30.63158
G1 X12.084 Y68.389 E30.64244
G1 X11.937 Y68.162 E30.65143
G1 X11.481 Y67.383 E30.68145
G1 X11.276 Y66.975 E30.69664
G1 X11.182 Y66.776 E30.70396
G1 X11.058 Y66.502 E30.71396
G1 X10.944 Y66.241 E30.72344
G1 X10.619 Y65.398 E30.75348
G1 X10.451 Y64.845 E30.77271
G1 X10.383 Y64.596 E30.78129
G1 X10.307 Y64.3 E30.79146
G1 X10.246 Y64.047 E30.80011
G1 X10.19 Y63.801 E30.8085
G1 X9.951 Y62.683 E30.84653
G1 X9.786 Y61.86 E30.87445
G1 X9.219 Y59.398 E30.95848
G1 X8.574 Y56.925 E31.04348
G1 X7.863 Y54.478 E31.12823
G1 X7.086 Y52.061 E31.21268
G1 X6.244 Y49.678 E31.29674
G1 X5.318 Y47.271 E31.38251
G1 X5.107 Y46.75 E31.40121
G1 X5.002 Y46.476 E31.41097
G1 X4.717 Y45.619 E31.44101
G1 X4.508 Y44.74 E31.47106
G1 X4.378 Y43.847 E31.50107
G1 X4.331 Y43.107 E31.52574
G1 X4.322 Y42.781 E31.53658
G1 X4.318 Y42.5 E31.54593
G1 X4.319 Y23.657 E32.17265
G1 X4.329 Y22.992 E32.19477
G1 X4.383 Y22.09 E32.22483
G1 X4.516 Y21.197 E32.25485
G1 X4.727 Y20.319 E32.28489
G1 X5.016 Y19.463 E32.31494
G1 X5.379 Y18.636 E32.34498
G1 X5.813 Y17.845 E32.37499
G1 X6.316 Y17.094 E32.40505
G1 X6.884 Y16.392 E32.43508
G1 X7.511 Y15.742 E32.46512
G1 X8.193 Y15.15 E32.49516
G1 X8.925 Y14.621 E32.5252
G1 X9.701 Y14.159 E32.55523
G1 F1500 E26.05523
;MESH:Palonnier-2.STL
G0 F6000 X13.865 Y43.489
G0 X20.009 Y49.177
G0 X20.277 Y50.226
G0 X19.287 Y52.019
G0 X19.174 Y52.665
G0 X19.287 Y53.312
G0 X19.606 Y53.885
G0 X20.101 Y54.32
G0 X20.592 Y54.516
G0 X21.733 Y54.676
;TYPE:WALL-INNER
G1 F1500 E32.55523
G1 F1200 X22.075 Y54.536 E32.56753
G1 X22.367 Y54.354 E32.57897
G1 X22.634 Y54.12 E32.59078
G1 X22.857 Y53.842 E32.60263
G1 X23.032 Y53.532 E32.61447
G1 X23.151 Y53.193 E32.62642
G1 X23.21 Y52.839 E32.63836
G1 X23.208 Y52.469 E32.65066
G1 X23.15 Y52.135 E32.66194
G1 X23.032 Y51.798 E32.67382
G1 X22.857 Y51.488 E32.68566
G1 X22.634 Y51.21 E32.69751
G1 X22.364 Y50.973 E32.70946
G1 X22.047 Y50.782 E32.72177
G1 X21.732 Y50.655 E32.73306
G1 X21.381 Y50.579 E32.74501
G1 X21.01 Y50.567 E32.75735
G1 X20.659 Y50.614 E32.76913
G1 X20.329 Y50.715 E32.78061
G1 X20.003 Y50.884 E32.79282
G1 X19.727 Y51.087 E32.80422
G1 X19.48 Y51.346 E32.81612
G1 X19.281 Y51.64 E32.82793
